img/tulip/thumb-dark.svg

<svg height="394" viewBox="0 0 537 394" width="537" xmlns="http://www.w3.org/2000/svg"><g fill="none"><path d="m0 0h537v393.345h-537z" fill="#282a29"/><g fill="#f9f9fa" transform="translate(88 145)"><path d="m156.550704 76.9435124v-49.993046h16.416178l1.355464-8.9273296h-45.332749v8.9273296h16.868v49.8442571h10.693107zm50.905214.7439441c13.404035 0 20.633178-5.9515531 20.633178-19.9377028v-39.5778281h-10.843714v39.4290392c0 6.6954973-1.355465 11.4567397-10.5425 11.4567397h-2.409714c-9.187036 0-10.693107-4.7612424-10.693107-11.4567397v-39.4290392h-10.693108v39.5778281c0 13.9861497 7.37975 19.9377028 20.633179 19.9377028zm73.948106-.7439441v-8.7785408h-27.711714v-49.993046h-10.693107v58.7715868zm22.289857 0v-58.7715868h-10.693107v58.7715868zm26.506857 0v-23.0622682h11.897964c13.253429 0 18.675286-4.4636649 18.675286-15.3252492v-4.4636649c0-12.3494726-4.970036-16.0691933-19.127107-16.0691933h-22.13925v58.7715867h10.693107zm19.729535-38.5363063c0 5.207609-1.355464 6.8442861-9.036428 6.8442861h-10.693107v-18.4498146h10.843714c7.831571 0 9.036429 1.7854659 9.036429 7.4394414v4.1660871z"/><path d="m88.928 25.314v38.834l-39.158 38.834v-38.834z"/><path d="m39.68 64.148v38.834l-39.309-38.834v-38.834z"/><path d="m72.512 27.843-27.712 27.526-27.862-27.526 27.862-27.377z"/></g></g></svg>

<svg xmlns="http://www.w3.org/2000/svg" width="537" height="394" viewBox="0 0 537 394">
  <g fill="none">
    <rect width="537" height="393.345" fill="#282A29"/>
    <g fill="#F9F9FA" transform="translate(88 145)">
      <path d="M156.550704,76.9435124 L156.550704,26.9504664 L172.966882,26.9504664 L174.322346,18.0231368 L128.989597,18.0231368 L128.989597,26.9504664 L145.857597,26.9504664 L145.857597,76.7947235 L156.550704,76.7947235 L156.550704,76.9435124 Z M207.455918,77.6874565 C220.859953,77.6874565 228.089096,71.7359034 228.089096,57.7497537 L228.089096,18.1719256 L217.245382,18.1719256 L217.245382,57.6009648 C217.245382,64.2964621 215.889917,69.0577045 206.702882,69.0577045 L204.293168,69.0577045 C195.106132,69.0577045 193.600061,64.2964621 193.600061,57.6009648 L193.600061,18.1719256 L182.906953,18.1719256 L182.906953,57.7497537 C182.906953,71.7359034 190.286703,77.6874565 203.540132,77.6874565 L207.455918,77.6874565 Z M281.404024,76.9435124 L281.404024,68.1649716 L253.69231,68.1649716 L253.69231,18.1719256 L242.999203,18.1719256 L242.999203,76.9435124 L281.404024,76.9435124 Z M303.693881,76.9435124 L303.693881,18.1719256 L293.000774,18.1719256 L293.000774,76.9435124 L303.693881,76.9435124 Z M330.200738,76.9435124 L330.200738,53.8812442 L342.098702,53.8812442 C355.352131,53.8812442 360.773988,49.4175793 360.773988,38.555995 L360.773988,34.0923301 C360.773988,21.7428575 355.803952,18.0231368 341.646881,18.0231368 L319.507631,18.0231368 L319.507631,76.7947235 L330.200738,76.7947235 L330.200738,76.9435124 Z M349.930273,38.4072061 C349.930273,43.6148151 348.574809,45.2514922 340.893845,45.2514922 L330.200738,45.2514922 L330.200738,26.8016776 L341.044452,26.8016776 C348.876023,26.8016776 350.080881,28.5871435 350.080881,34.241119 L350.080881,38.4072061 L349.930273,38.4072061 Z"/>
      <polygon points="88.928 25.314 88.928 64.148 49.77 102.982 49.77 64.148"/>
      <polygon points="39.68 64.148 39.68 102.982 .371 64.148 .371 25.314"/>
      <polygon points="72.512 27.843 44.8 55.369 16.938 27.843 44.8 .466"/>
    </g>
  </g>
</svg>
